src/assets/icons/home.svg

<svg width="20" height="20" viewBox="0 0 20 20" fill="none" xmlns="http://www.w3.org/2000/svg">
<path d="M2.87868 7.12106C4.05025 8.29263 5.94975 8.29263 7.12132 7.12106C7.26529 6.97709 7.39156 6.82213 7.50015 6.65889C8.03763 7.46711 8.95661 7.99977 10 7.99977C11.0435 7.99977 11.9626 7.46697 12.5001 6.65856C12.6087 6.82194 12.7351 6.97702 12.8791 7.12109C14.0507 8.29267 15.9502 8.29267 17.1218 7.12109C18.2933 5.94952 18.2933 4.05003 17.1218 2.87845L16.8291 2.58579C16.454 2.21071 15.9453 2 15.4149 2H4.58552C4.05509 2 3.54638 2.21071 3.17131 2.58579L2.87868 2.87842C1.70711 4.04999 1.70711 5.94949 2.87868 7.12106Z" fill="#A685FA"/>
<path d="M3 9.03223C4.42799 9.74067 6.15393 9.64395 7.50057 8.74205C8.21499 9.22007 9.07471 9.49977 10 9.49977C10.9254 9.49977 11.7852 9.22002 12.4996 8.74191C13.8462 9.64388 15.572 9.74073 17 9.03249V16.5H17.25C17.6642 16.5 18 16.8358 18 17.25C18 17.6642 17.6642 18 17.25 18H12.75C12.3358 18 12 17.6642 12 17.25V13.75C12 13.3358 11.6642 13 11.25 13H8.75C8.33579 13 8 13.3358 8 13.75V17.25C8 17.6642 7.66421 18 7.25 18H2.75C2.33579 18 2 17.6642 2 17.25C2 16.8358 2.33579 16.5 2.75 16.5H3V9.03223Z" fill="#A685FA"/>
</svg>

<svg xmlns="http://www.w3.org/2000/svg" width="20" height="20" fill="#a685fa" xmlns:v="https://vecta.io/nano"><path d="M2.879 7.121a3 3 0 0 0 4.243 0 3.05 3.05 0 0 0 .379-.462C8.038 7.467 8.957 8 10 8a3 3 0 0 0 2.5-1.341 3.11 3.11 0 0 0 .379.463 3 3 0 0 0 4.243-4.243l-.293-.293A2 2 0 0 0 15.415 2H4.586a2 2 0 0 0-1.414.586l-.293.293a3 3 0 0 0 0 4.243zM3 9.032a4.51 4.51 0 0 0 4.501-.29A4.48 4.48 0 0 0 10 9.5a4.48 4.48 0 0 0 2.5-.758 4.51 4.51 0 0 0 4.5.291V16.5h.25a.75.75 0 1 1 0 1.5h-4.5a.75.75 0 0 1-.75-.75v-3.5a.75.75 0 0 0-.75-.75h-2.5a.75.75 0 0 0-.75.75v3.5a.75.75 0 0 1-.75.75h-4.5a.75.75 0 1 1 0-1.5H3V9.032z"/></svg>
